X:18
T:Savez-vous pourquoi 
S:80 airs  danser du centre France - La Chavanne - 1991
C:Trad.
O:France
A:Centre
R:Bourre  2 temps
Z:Transcrit et/ou corrig par Michel BELLON - 2005-05-15
Z:Pour toute observation mailto:galouvielle@free.fr
M:2/4
L:1/8
K:Gm
G>^F GA | BG AB | G>^F GA | BG A2 | G>^F GA | BG AB | G>^F GA | BG A2 :| 
AA dc | BA GG | A>c BA | G^F G2 | AA dc | BA GG | A>c BA | G^F G2 |]
%%footer $D   Galouvielle-MBe 2005 \nBourre  2 temps France
